Hatter-kde/actions/24/view-sort-ascending-name.svg

<svg xmlns="http://www.w3.org/2000/svg" viewBox="0 0 24 24">
  <defs id="defs3051">
    <style type="text/css" id="current-color-scheme">
      .ColorScheme-Text {
        color:#363636;
      }
      </style>
  </defs>
 <path style="fill:currentColor;fill-opacity:1;stroke:none" 
     d="M 8.0957031 4 C 7.3124631 4.0182 6.7105975 4.1551087 6.2734375 4.3554688 L 6.5195312 5.2558594 C 6.7290012 5.1829594 7.5218511 4.9296875 7.9863281 4.9296875 L 8.0488281 4.9296875 C 8.6954581 4.9569875 8.7421875 5.1924969 8.7421875 5.7480469 L 8.7421875 5.9667969 L 8.4042969 6.0214844 C 6.8378069 6.2491749 6 6.4403881 6 7.6425781 C 6 8.4804681 6.6107106 9 7.4941406 9 C 8.1043406 9 8.5042305 8.7445175 8.9140625 8.3984375 L 9.0410156 8.9082031 L 10.007812 8.9082031 L 10.007812 5.5390625 C 10.007812 4.5099225 9.296026 4 8.203125 4 L 8.0957031 4 z M 8.7421875 6.6777344 L 8.7421875 7.796875 C 8.4052175 8.024565 8.1500506 8.1894531 7.7128906 8.1894531 C 7.3212706 8.1894531 7.1289062 7.9437363 7.1289062 7.5976562 C 7.1289062 6.9419163 7.7030169 6.8326019 8.4042969 6.7324219 L 8.7421875 6.6777344 z M 14.5 9.7929688 L 14.292969 10 L 11 13.292969 L 11.707031 14 L 14 11.707031 L 14 20 L 15 20 L 15 11.707031 L 17.292969 14 L 18 13.292969 L 14.707031 10 L 14.5 9.7929688 z M 6.1113281 10.199219 L 6.1113281 11.013672 L 8.1835938 11.013672 L 6 14.269531 L 6 15 L 9.828125 15 L 9.828125 14.148438 L 7.5820312 14.148438 L 9.7558594 10.857422 L 9.7558594 10.199219 L 6.1113281 10.199219 z "
     class="ColorScheme-Text"
     />
</svg>

<?xml version="1.0" encoding="UTF-8"?>
<svg viewBox="0 0 24 24" xmlns="http://www.w3.org/2000/svg">
 <defs id="defs3051">
  <style id="current-color-scheme" type="text/css">.ColorScheme-Text {
        color:#363636;
      }</style>
 </defs>
 <path class="ColorScheme-Text" d="m8.0957 4c-0.78324 0.0182-1.3851 0.15511-1.8223 0.35547l0.24609 0.90039c0.20947-0.0729 1.0023-0.32617 1.4668-0.32617h0.0625c0.64663 0.0273 0.69336 0.26281 0.69336 0.81836v0.21875l-0.33789 0.054688c-1.5665 0.22769-2.4043 0.4189-2.4043 1.6211 0 0.83789 0.61071 1.3574 1.4941 1.3574 0.6102 0 1.0101-0.25548 1.4199-0.60156l0.12695 0.50977h0.9668v-3.3691c0-1.0291-0.71179-1.5391-1.8047-1.5391h-0.10742zm0.64648 2.6777v1.1191c-0.33697 0.22769-0.59214 0.39258-1.0293 0.39258-0.39162 0-0.58398-0.24572-0.58398-0.5918 0-0.65574 0.57411-0.76505 1.2754-0.86523l0.33789-0.054688zm5.7578 3.1152-3.5 3.5 0.70703 0.70703 2.293-2.293v8.293h1v-8.293l2.293 2.293 0.70703-0.70703-3.5-3.5zm-8.3887 0.40625v0.81445h2.0723l-2.1836 3.2559v0.73047h3.8281v-0.85156h-2.2461l2.1738-3.291v-0.6582h-3.6445z" fill="currentColor"/>
</svg>
